X:6921
T:The Home Ruler
O:england
M:4/4
L:1/8
S:Noel Hill/Tony Linnane
R:hornpipe
K:D
D2 FA DAFA|dfeA B2 dB|A2 AB AFDE|FDED B,DA,B,|D2 FA DAFA|dfeA B2 dB|A2 A
B AFDG|(3FGF
D D2 D3 E:||B|:Addc ~d3d|adbd afed|efed BdAB|efed BdAG|Addc ~d3 d|adbd a
fed|efed BA
dB|AFEF D3 B:||
